2-ui/4-forms-controls/1-form-elements/form-navigation.svg

<?xml version="1.0" encoding="UTF-8"?>
<svg width="463px" height="150px" viewBox="0 0 463 150" version="1.1" xmlns="http://www.w3.org/2000/svg" xmlns:xlink="http://www.w3.org/1999/xlink">
    <!-- Generator: sketchtool 61.2 (101010) - https://sketch.com -->
    <title>form-navigation.svg</title>
    <desc>Created with sketchtool.</desc>
    <g id="dom" stroke="none" stroke-width="1" fill="none" fill-rule="evenodd">
        <g id="form-navigation.svg">
            <rect id="Rectangle-6" stroke="#E8C48E" stroke-width="2" fill="#FFF9EB" x="174" y="14" width="78" height="28"></rect>
            <text id="form" font-family="PTMono-Regular, PT Mono" font-size="14" font-weight="normal" fill="#8A704D">
                <tspan x="197.203646" y="33">form</tspan>
            </text>
            <rect id="Rectangle-6-Copy" stroke="#E8C48E" stroke-width="2" fill="#FFF9EB" x="32" y="109" width="101" height="28"></rect>
            <text id="elements[0]" font-family="PTMono-Regular, PT Mono" font-size="14" font-weight="normal" fill="#8A704D">
                <tspan x="37.3" y="127">elements[0]</tspan>
            </text>
            <rect id="Rectangle-6-Copy-2" stroke="#E8C48E" stroke-width="2" fill="#FFF9EB" x="162" y="109" width="101" height="28"></rect>
            <text id="elements[1]" font-family="PTMono-Regular, PT Mono" font-size="14" font-weight="normal" fill="#8A704D">
                <tspan x="167.3" y="127">elements[1]</tspan>
            </text>
            <rect id="Rectangle-6-Copy-3" stroke="#E8C48E" stroke-width="2" fill="#FFF9EB" x="342" y="109" width="101" height="28"></rect>
            <text id="elements[n]" font-family="PTMono-Regular, PT Mono" font-size="14" font-weight="normal" fill="#8A704D">
                <tspan x="347.3" y="127">elements[n]</tspan>
            </text>
            <text id="..." font-family="PTMono-Bold, PT Mono" font-size="14" font-weight="bold" fill="#8A704D">
                <tspan x="292.4" y="129">...</tspan>
            </text>
            <path id="Line-Copy-4" d="M231.967935,47.1896919 L232.889122,47.5788137 L335.992,91.131 L338.327244,85.6039906 L348.5,97.5 L332.879539,98.5005989 L335.214,92.973 L232.110878,49.4211863 L231.189692,49.0320645 L231.967935,47.1896919 Z" fill="#EE6B47" fill-rule="nonzero"></path>
            <path id="Line-Copy-6" d="M371.329317,91.2302755 L372.250503,91.6193973 L375.014062,92.7867627 L375.935249,93.1758845 L375.157005,95.0182571 L374.235819,94.6291353 L371.47226,93.4617699 L370.551073,93.0726481 L371.329317,91.2302755 Z M363.03864,87.7281792 L363.959827,88.117301 L366.723385,89.2846664 L367.644572,89.6737882 L366.866328,91.5161609 L365.945142,91.1270391 L363.181583,89.9596736 L362.260397,89.5705518 L363.03864,87.7281792 Z M354.747963,84.226083 L355.66915,84.6152048 L359.353895,86.171692 L358.575651,88.0140646 L357.654465,87.6249428 L354.890906,86.4575774 L353.96972,86.0684556 L354.747963,84.226083 Z M346.457287,80.7239867 L347.378473,81.1131085 L350.142032,82.280474 L351.063218,82.6695958 L350.284975,84.5119684 L345.679043,82.5663594 L346.457287,80.7239867 Z M338.16661,77.2218905 L339.087796,77.6110123 L341.851355,78.7783777 L342.772541,79.1674995 L341.994298,81.0098721 L341.073111,80.6207503 L338.309552,79.4533849 L337.388366,79.0642631 L338.16661,77.2218905 Z M329.875933,73.7197943 L330.797119,74.1089161 L333.560678,75.2762815 L334.481865,75.6654033 L333.703621,77.5077759 L332.782435,77.1186541 L330.018876,75.9512887 L329.097689,75.5621669 L329.875933,73.7197943 Z M321.585256,70.217698 L322.506442,70.6068198 L325.270001,71.7741852 L326.191188,72.163307 L325.412944,74.0056797 L320.807013,72.0600706 L321.585256,70.217698 Z M313.294579,66.7156018 L314.215766,67.1047236 L316.979325,68.272089 L317.900511,68.6612108 L317.122267,70.5035834 L316.201081,70.1144616 L313.437522,68.9470962 L312.516336,68.5579744 L313.294579,66.7156018 Z M305.003903,63.2135055 L305.925089,63.6026274 L308.688648,64.7699928 L309.609834,65.1591146 L308.83159,67.0014872 L307.910404,66.6123654 L305.146845,65.445 L304.225659,65.0558782 L305.003903,63.2135055 Z M296.713226,59.7114093 L300.397971,61.2678965 L301.319157,61.6570183 L300.540914,63.499391 L299.619727,63.1102692 L296.856168,61.9429037 L295.934982,61.5537819 L296.713226,59.7114093 Z M288.422549,56.2093131 L289.343735,56.5984349 L292.107294,57.7658003 L293.02848,58.1549221 L292.250237,59.9972947 L291.329051,59.6081729 L288.565492,58.4408075 L287.644305,58.0516857 L288.422549,56.2093131 Z M276.120461,44.4994011 L273.785,50.026 L275.525941,50.7616078 L276.447127,51.1507296 L275.668883,52.9931022 L274.747697,52.6039804 L273.007,51.868 L270.672756,57.3960094 L260.5,45.5 L276.120461,44.4994011 Z M280.131872,52.7072168 L281.053058,53.0963386 L284.737804,54.6528259 L283.95956,56.4951985 L283.038374,56.1060767 L280.274815,54.9387113 L279.353629,54.5495895 L280.131872,52.7072168 Z" fill="#EE6B47" fill-rule="nonzero"></path>
            <path id="Line-Copy-5" d="M186.873814,47.1360853 L187.863915,48.8738137 L186.995051,49.3688642 L113.158,91.437 L116.129452,96.651342 L100.5,97.5 L109.198745,84.4872433 L112.168,89.7 L186.004949,47.6311358 L186.873814,47.1360853 Z" fill="#EE6B47" fill-rule="nonzero"></path>
            <path id="Line-Copy" d="M64.4413514,98.6106312 L65.455013,100.334722 L64.5929675,100.841553 L62.0068308,102.362046 L61.1447852,102.868876 L60.1311236,101.144785 L60.9931692,100.637954 L63.5793059,99.117462 L64.4413514,98.6106312 Z M72.1997614,94.049154 L73.213423,95.7732451 L72.3513775,96.2800759 L69.7652408,97.8005683 L68.9031952,98.3073991 L67.8895336,96.583308 L71.3377158,94.5559848 L72.1997614,94.049154 Z M79.9581714,89.4876768 L80.971833,91.2117679 L77.5236508,93.2390911 L76.6616052,93.7459219 L75.6479436,92.0218308 L76.5099892,91.515 L79.0961258,89.9945076 L79.9581714,89.4876768 Z M87.7165814,84.9261996 L88.730243,86.6502907 L87.8681974,87.1571215 L85.2820608,88.6776139 L84.4200152,89.1844447 L83.4063536,87.4603536 L84.2683992,86.9535228 L86.8545358,85.4330304 L87.7165814,84.9261996 Z M95.4749914,80.3647223 L96.488653,82.0888134 L93.0404707,84.1161366 L92.1784252,84.6229674 L91.1647636,82.8988763 L92.0268091,82.3920455 L95.4749914,80.3647223 Z M103.233401,75.8032451 L104.247063,77.5273362 L103.385017,78.034167 L100.798881,79.5546594 L99.9368352,80.0614902 L98.9231736,78.3373991 L99.7852191,77.8305683 L102.371356,76.3100759 L103.233401,75.8032451 Z M110.991811,71.2417679 L112.005473,72.965859 L107.695245,75.500013 L106.681584,73.7759219 L107.543629,73.2690911 L110.991811,71.2417679 Z M118.750221,66.6802906 L119.763883,68.4043817 L118.901837,68.9112126 L116.315701,70.431705 L115.453655,70.9385358 L114.439994,69.2144447 L115.302039,68.7076139 L117.888176,67.1871214 L118.750221,66.6802906 Z M126.508631,62.1188134 L127.522293,63.8429045 L123.212065,66.3770585 L122.198404,64.6529674 L123.060449,64.1461366 L126.508631,62.1188134 Z M134.267041,57.5573362 L135.280703,59.2814273 L134.418657,59.7882581 L131.832521,61.3087505 L130.970475,61.8155813 L129.956814,60.0914902 L130.818859,59.5846594 L133.404996,58.064167 L134.267041,57.5573362 Z M142.025451,52.995859 L143.039113,54.7199501 L142.177067,55.2267809 L139.590931,56.7472733 L138.728885,57.2541041 L137.715223,55.530013 L142.025451,52.995859 Z M161,43 L152.479178,56.1299501 L149.438,50.957 L147.349341,52.1857961 L146.487295,52.6926269 L145.473633,50.9685357 L146.335679,50.4617049 L148.424,49.233 L145.383547,44.0613124 L161,43 Z" fill="#EE6B47" fill-rule="nonzero"></path>
            <text id="form" font-family="PTMono-Regular, PT Mono" font-size="14" font-weight="normal" fill="#8A704D">
                <tspan x="78.7" y="61">form</tspan>
            </text>
            <text id="form-copy" font-family="PTMono-Regular, PT Mono" font-size="14" font-weight="normal" fill="#8A704D">
                <tspan x="319.7" y="61">form</tspan>
            </text>
            <path id="Line" d="M218.5,50.5 L218.5,87.5 L224.5,87.5 L217.5,101.5 L210.5,87.5 L216.5,87.5 L216.5,50.5 L218.5,50.5 Z" fill="#EE6B47" fill-rule="nonzero"></path>
            <path id="Line-Copy-3" d="M203.5,99.5 L203.5,102.5 L201.5,102.5 L201.5,99.5 L203.5,99.5 Z M203.5,90.5 L203.5,95.5 L201.5,95.5 L201.5,90.5 L203.5,90.5 Z M203.5,81.5 L203.5,86.5 L201.5,86.5 L201.5,81.5 L203.5,81.5 Z M203.5,72.5 L203.5,77.5 L201.5,77.5 L201.5,72.5 L203.5,72.5 Z M202.5,51.5 L209.5,65.5 L203.5,65.5 L203.5,68.5 L201.5,68.5 L201.5,65.5 L195.5,65.5 L202.5,51.5 Z" fill="#EE6B47" fill-rule="nonzero"></path>
        </g>
    </g>
</svg>

<svg xmlns="http://www.w3.org/2000/svg" width="463" height="150" viewBox="0 0 463 150"><defs><style>@import url(https://fonts.googleapis.com/css?family=Open+Sans:bold,italic,bolditalic%7CPT+Mono);@font-face{font-family:&apos;PT Mono&apos;;font-weight:700;font-style:normal;src:local(&apos;PT MonoBold&apos;),url(/font/PTMonoBold.woff2) format(&apos;woff2&apos;),url(/font/PTMonoBold.woff) format(&apos;woff&apos;),url(/font/PTMonoBold.ttf) format(&apos;truetype&apos;)}</style></defs><g id="dom" fill="none" fill-rule="evenodd" stroke="none" stroke-width="1"><g id="form-navigation.svg"><path id="Rectangle-6" fill="#FBF2EC" stroke="#DBAF88" stroke-width="2" d="M174 14h78v28h-78z"/><text id="form" fill="#AF6E24" font-family="PTMono-Regular, PT Mono" font-size="14" font-weight="normal"><tspan x="197.204" y="33">form</tspan></text><path id="Rectangle-6-Copy" fill="#FBF2EC" stroke="#DBAF88" stroke-width="2" d="M32 109h101v28H32z"/><text id="elements[0]" fill="#AF6E24" font-family="PTMono-Regular, PT Mono" font-size="14" font-weight="normal"><tspan x="37.3" y="127">elements[0]</tspan></text><path id="Rectangle-6-Copy-2" fill="#FBF2EC" stroke="#DBAF88" stroke-width="2" d="M162 109h101v28H162z"/><text id="elements[1]" fill="#AF6E24" font-family="PTMono-Regular, PT Mono" font-size="14" font-weight="normal"><tspan x="167.3" y="127">elements[1]</tspan></text><path id="Rectangle-6-Copy-3" fill="#FBF2EC" stroke="#DBAF88" stroke-width="2" d="M342 109h101v28H342z"/><text id="elements[n]" fill="#AF6E24" font-family="PTMono-Regular, PT Mono" font-size="14" font-weight="normal"><tspan x="347.3" y="127">elements[n]</tspan></text><text id="..." fill="#AF6E24" font-family="PTMono-Bold, PT Mono" font-size="14" font-weight="bold"><tspan x="292.4" y="129">...</tspan></text><path id="Line-Copy-4" fill="#C06334" fill-rule="nonzero" d="M231.968 47.19l.921.389L335.992 91.13l2.335-5.527L348.5 97.5l-15.62 1 2.334-5.527-103.103-43.552-.921-.389.778-1.842z"/><path id="Line-Copy-6" fill="#C06334" fill-rule="nonzero" d="M371.33 91.23l.92.39 2.764 1.167.921.389-.778 1.842-.921-.389-2.764-1.167-.92-.39.777-1.842zm-8.291-3.502l.92.39 2.764 1.167.922.389-.779 1.842-.92-.389-2.764-1.167-.922-.39.779-1.842zm-8.291-3.502l.921.39 3.685 1.556-.778 1.842-.922-.39-2.763-1.166-.921-.39.778-1.842zm-8.29-3.502l.92.39 2.764 1.166.921.39-.778 1.842-4.606-1.946.778-1.842zm-8.291-3.502l.92.389 2.764 1.167.922.39-.779 1.842-.92-.39-2.764-1.167-.922-.389.779-1.842zm-8.291-3.502l.921.389 2.764 1.167.92.39-.777 1.842-.922-.39-2.763-1.167-.921-.389.778-1.842zm-8.29-3.502l.92.389 2.764 1.167.921.39-.778 1.842-4.606-1.946.778-1.842zm-8.291-3.502l.92.389 2.764 1.167.922.39-.779 1.842-.92-.39-2.764-1.167-.922-.389.779-1.842zm-8.291-3.502l.921.389 2.764 1.167.92.39-.777 1.841-.922-.389-2.763-1.167-.921-.39.778-1.841zm-8.29-3.503l3.684 1.557.921.389-.778 1.842-.921-.389-2.764-1.167-.921-.39.778-1.842zm-8.291-3.502l.92.39 2.764 1.167.921.389-.778 1.842-.92-.389-2.765-1.167-.92-.39.778-1.842zM276.12 44.5l-2.335 5.527 1.74.736.922.389-.778 1.842-.921-.389-1.741-.736-2.334 5.528L260.5 45.5l15.62-1zm4.012 8.208l.921.39 3.685 1.556-.778 1.842-.922-.389-2.763-1.167-.921-.39.778-1.842z"/><path id="Line-Copy-5" fill="#C06334" fill-rule="nonzero" d="M186.874 47.136l.99 1.738-.869.495-73.837 42.068 2.971 5.214-15.629.849 8.699-13.013 2.969 5.213 73.837-42.069.869-.495z"/><path id="Line-Copy" fill="#C06334" fill-rule="nonzero" d="M64.441 98.61l1.014 1.725-.862.507-2.586 1.52-.862.507-1.014-1.724.862-.507 2.586-1.52.862-.507zm7.759-4.56l1.013 1.723-.862.507-2.586 1.52-.862.507-1.013-1.724 3.448-2.027.862-.507zm7.758-4.562l1.014 1.724-3.448 2.027-.862.507-1.014-1.724.862-.507 2.586-1.52.862-.507zm7.759-4.562l1.013 1.724-.862.507-2.586 1.52-.862.507-1.014-1.724.862-.506 2.587-1.521.862-.507zm7.758-4.561l1.014 1.724-3.449 2.027-.862.507-1.013-1.724.862-.507 3.448-2.027zm7.758-4.562l1.014 1.724-.862.507-2.586 1.52-.862.507-1.014-1.724.862-.506 2.586-1.52.862-.508zm7.759-4.561l1.013 1.724-4.31 2.534-1.013-1.724.862-.507 3.448-2.027zm7.758-4.562l1.014 1.724-.862.507-2.586 1.52-.862.508-1.014-1.725.862-.506 2.586-1.52.862-.508zm7.759-4.561l1.013 1.724-4.31 2.534-1.014-1.724.862-.507 3.449-2.027zm7.758-4.562l1.014 1.724-.862.507-2.586 1.52-.863.508-1.013-1.725.862-.506 2.586-1.52.862-.508zm7.758-4.561l1.014 1.724-.862.507-2.586 1.52-.862.507-1.014-1.724 4.31-2.534zM161 43l-8.52 13.13-3.042-5.173-2.089 1.229-.862.507-1.013-1.724.862-.507 2.088-1.229-3.04-5.172L161 43z"/><text id="form" fill="#AF6E24" font-family="PTMono-Regular, PT Mono" font-size="14" font-weight="normal"><tspan x="78.7" y="61">form</tspan></text><text id="form-copy" fill="#AF6E24" font-family="PTMono-Regular, PT Mono" font-size="14" font-weight="normal"><tspan x="319.7" y="61">form</tspan></text><path id="Line" fill="#C06334" fill-rule="nonzero" d="M218.5 50.5v37h6l-7 14-7-14h6v-37h2z"/><path id="Line-Copy-3" fill="#C06334" fill-rule="nonzero" d="M203.5 99.5v3h-2v-3h2zm0-9v5h-2v-5h2zm0-9v5h-2v-5h2zm0-9v5h-2v-5h2zm-1-21l7 14h-6v3h-2v-3h-6l7-14z"/></g></g></svg>
